drivers/ropot/assets/icon.svg

<?xml version="1.0" encoding="UTF-8" standalone="no"?>
<!-- Generator: Adobe Illustrator 21.1.0, SVG Export Plug-In . SVG Version: 6.00 Build 0)  -->

<svg
   version="1.1"
   id="Layer_1"
   x="0px"
   y="0px"
   viewBox="0 0 201.8 205"
   style="enable-background:new 0 0 201.8 205;"
   xml:space="preserve"
   sodipodi:docname="icon.svg"
   inkscape:version="1.1.1 (3bf5ae0d25, 2021-09-20)"
   xmlns:inkscape="http://www.inkscape.org/namespaces/inkscape"
   xmlns:sodipodi="http://sodipodi.sourceforge.net/DTD/sodipodi-0.dtd"
   xmlns="http://www.w3.org/2000/svg"
   xmlns:svg="http://www.w3.org/2000/svg"><defs
   id="defs4684">
	
	
	
</defs><sodipodi:namedview
   id="namedview4682"
   pagecolor="#ffffff"
   bordercolor="#666666"
   borderopacity="1.0"
   inkscape:pageshadow="2"
   inkscape:pageopacity="0.0"
   inkscape:pagecheckerboard="0"
   showgrid="false"
   showguides="true"
   inkscape:guide-bbox="true"
   inkscape:zoom="2.4800477"
   inkscape:cx="108.26405"
   inkscape:cy="162.49688"
   inkscape:window-width="1920"
   inkscape:window-height="975"
   inkscape:window-x="1920"
   inkscape:window-y="0"
   inkscape:window-maximized="1"
   inkscape:current-layer="Layer_1"><sodipodi:guide
     position="51.891515,158.81085"
     orientation="0,-1"
     id="guide4844" /></sodipodi:namedview>
<path
   id="path4675"
   d="M 41.199219 34.800781 C 37.299219 34.800781 34.100781 38.000391 34.300781 41.900391 C 34.400781 44.000391 34.499609 46.400391 34.599609 48.900391 C 35.199609 58.000391 35.499609 62.499219 36.599609 65.699219 C 39.599609 74.499219 44.299609 75.6 45.099609 83.5 C 45.299609 85.3 45.5 89.300391 45.5 91.400391 C 45.7 95.700391 45.699219 98.800781 45.699219 99.300781 C 45.799219 108.70078 47.199219 126.10078 49.199219 153.80078 C 49.299219 155.00078 49.399609 157.19961 49.599609 159.09961 C 49.699609 160.99961 50.599609 162.70039 52.099609 163.90039 C 52.399609 164.20039 52.799219 164.50078 53.199219 164.80078 C 58.099219 168.30078 63.200391 168.8 65.400391 169 C 72.600391 169.6 86.000393 170 100.90039 170 C 115.70039 170 129.20039 169.6 136.40039 169 C 138.60039 168.8 143.79961 168.30078 148.59961 164.80078 C 148.99961 164.50078 149.39922 164.20039 149.69922 163.90039 C 151.19922 162.70039 151.99922 160.89961 152.19922 159.09961 C 152.29922 157.19961 152.49961 155.00078 152.59961 153.80078 C 154.59961 126.10078 155.99961 108.70078 156.09961 99.300781 C 156.09961 98.800781 156.10061 95.600391 156.30078 91.400391 C 156.40078 89.300391 156.59922 85.3 156.69922 83.5 C 157.49922 75.6 162.09922 74.399219 165.19922 65.699219 C 166.29922 62.499219 166.59922 58.000391 167.19922 48.900391 C 167.39922 46.400391 167.5 44.000391 167.5 41.900391 C 167.6 38.100391 164.5 34.800781 160.5 34.800781 L 101 34.800781 L 100.90039 34.800781 L 41.199219 34.800781 z M 101.34766 46.189453 C 101.61482 46.201703 103.02749 46.810671 103.11523 46.902344 C 103.01304 47.003531 102.34546 47.415771 101.88477 47.580078 C 101.30944 47.803995 100.87345 47.609194 100.42578 47.400391 C 100.12798 47.260965 99.617356 47.036467 99.552734 46.939453 C 99.635724 46.826491 101.1482 46.214501 101.34766 46.189453 z M 105.68945 47.136719 C 106.27772 47.105159 106.1887 48.014932 106.32812 48.425781 C 106.40423 49.043686 106.52219 49.671058 106.47852 50.292969 C 106.40962 50.718845 105.65915 50.146684 105.3418 49.835938 C 104.50791 49.191069 103.5931 48.651029 102.64258 48.197266 C 103.59402 47.687232 104.59166 47.199839 105.68945 47.136719 z M 97.367188 47.322266 C 97.408579 47.323658 97.450309 47.328057 97.494141 47.335938 C 99.897872 47.814833 102.03634 49.081488 104.11914 50.314453 C 105.42891 51.122379 106.33988 52.780408 105.87109 54.318359 C 105.31572 55.794946 103.86897 56.789079 102.36133 57.107422 C 100.53225 57.511927 98.421322 57.0284 97.173828 55.572266 C 96.173126 54.291797 96.123762 52.583362 96.076172 51.029297 C 96.101469 50.084199 96.218849 49.362866 96.34375 48.535156 C 96.400497 47.982015 96.746318 47.301377 97.367188 47.322266 z " /><rect
   x="100.9"
   y="49.200001"
   width="0"
   height="10.6"
   id="rect4677" />
</svg>

<?xml version="1.0" encoding="utf-8"?>
<!-- Generator: Adobe Illustrator 21.1.0, SVG Export Plug-In . SVG Version: 6.00 Build 0)  -->
<svg version="1.1" id="Layer_1" xmlns="http://www.w3.org/2000/svg" xmlns:xlink="http://www.w3.org/1999/xlink" x="0px" y="0px"
	 viewBox="0 0 201.8 205" style="enable-background:new 0 0 201.8 205;" xml:space="preserve">
<g>
	<path d="M97.1,56.2c-0.5-1.1-0.3-2.5,0-5.2c0.1-1.4,0.3-1.8,0.7-2.1c0.6-0.5,1.5-0.2,3.2,0.3V34.8H41.2c-3.9,0-7.1,3.2-6.9,7.1
		c0.1,2.1,0.2,4.5,0.3,7c0.6,9.1,0.9,13.6,2,16.8c3,8.8,7.7,9.9,8.5,17.8c0.2,1.8,0.4,5.8,0.4,7.9c0.2,4.3,0.2,7.4,0.2,7.9
		c0.1,9.4,1.5,26.8,3.5,54.5c0.1,1.2,0.2,3.4,0.4,5.3c0.1,1.9,1,3.6,2.5,4.8c0.3,0.3,0.7,0.6,1.1,0.9c4.9,3.5,10,4,12.2,4.2
		c7.2,0.6,20.6,1,35.5,1V59.8C99.1,59.2,97.7,57.7,97.1,56.2z"/>
	<path d="M160.5,34.8h-59.6v14.4c0.2,0.1,0.4,0.1,0.6,0.2c2.2,0.7,3.6,1.5,4,1.8c1.1,0.7,1.7,1,2.1,1.5c1,1.4,1.3,3.7,0.1,5.4
		c-1.7,2.6-5.4,2-5.8,1.9s-0.7-0.2-1-0.3V170c14.8,0,28.3-0.4,35.5-1c2.2-0.2,7.4-0.7,12.2-4.2c0.4-0.3,0.8-0.6,1.1-0.9
		c1.5-1.2,2.3-3,2.5-4.8c0.1-1.9,0.3-4.1,0.4-5.3c2-27.7,3.4-45.1,3.5-54.5c0-0.5,0-3.7,0.2-7.9c0.1-2.1,0.3-6.1,0.4-7.9
		c0.8-7.9,5.4-9.1,8.5-17.8c1.1-3.2,1.4-7.7,2-16.8c0.2-2.5,0.3-4.9,0.3-7C167.6,38.1,164.5,34.8,160.5,34.8z M104.6,48.5
		c-0.1,0.5-1.3,0.8-2.2,0.6c-0.9-0.3-1.7-1.1-1.5-1.6c0.2-0.6,1.7-0.7,2.7-0.2C104,47.5,104.7,48.1,104.6,48.5z M108.9,52
		c-0.9,0.6-4.1-1.6-3.8-2.7c0.2-0.7,1.8-1.4,3-0.7C109.6,49.4,109.5,51.6,108.9,52z"/>
	<rect x="100.9" y="49.2" width="0" height="10.6"/>
</g>
</svg>
